X:1
T:Spootiskerry
C:Ian Burns \2511980
M:C|
R:reel
K:G
DE |\
"G"G2DE GDEG | DEGA "D"B2AB | "G"G2DE "Em"GABd | "C"eged "D"B2AB |
"G"G2DE GDEG | DEGA "G7"B2AB | "C"g2ed "Am"edBA | "D7"B2G2 "G"G2 :|
ef |\
"Em"g2ed edB2 | BABG "C"E2DE | "G"GABd "Em"eged | "A7"B2A2  "D7"A2 |
[1 ef | "Em"g2ed edB2 | BABG "C"E2DE | "G"GABd "C"eged | "D"B2G2 "G"G2ef :|
[2 DE | "G"G2DE GDEG | DEGA "G7"B2AB | "C"g2ed "Am"edBA | "D7"B2G2 "G"G2 |]
